X: 15530
T: Glentaun, The
R: reel
M: 4/4
K: Gmajor
DGBG AGBG|DEGB AE ~E2|D3B A2Bc|dged BAGE|
DGBG AGBG|DEGB AE ~E2|DEGB A2Bc|dBAc BGG2||
Bdd^c d2ef|g2fg eA (3AAA|(3Bcd ef gage|dBAc BGG2|
B~d3 d2ef|g2fg eA (3AAA|(3Bcd ef gage|dBAc BAGE||

